X: 10361
M: 3/4
L: 1/8
K: G
(B/c/) |\
(de)(dc).B.A | G2(GF)(GB) |\
(de)(dc)BA | G2GFGB |\
(de).d.c.B.A | G3z ::[K:C=f] c2 |\
e4d2 | c4Bc |\
d2g2g2 | e2c2G2 |\
e4d2 | c4Bc |\
d2g2g2 | c3"^D.C."z :|


